icons/arrow-reverse-topright.svg

<svg width="24" height="24" viewBox="0 0 24 24" fill="none" xmlns="http://www.w3.org/2000/svg">
<path fill-rule="evenodd" clip-rule="evenodd" d="M14.1729 14.9312C14.4658 15.2241 14.9407 15.2241 15.2336 14.9312L18.6348 11.53C18.9054 11.2594 19.0796 10.9002 19.0796 10.4995C19.0796 10.0987 18.9054 9.73952 18.6348 9.46895L15.2336 6.06772C14.9407 5.77482 14.4658 5.77482 14.1729 6.06772C13.88 6.36061 13.88 6.83548 14.1729 7.12838L17.544 10.4995L14.1729 13.8705C13.88 14.1634 13.88 14.6383 14.1729 14.9312Z" fill="black"/>
<path fill-rule="evenodd" clip-rule="evenodd" d="M5.59998 18.152C6.01419 18.152 6.34998 17.8162 6.34998 17.402L5.59998 17.402C6.34998 17.402 6.34998 17.4017 6.34998 17.402L6.35009 17.394C6.35024 17.3849 6.35056 17.3695 6.35127 17.3483C6.35268 17.3059 6.35563 17.2402 6.36175 17.1545C6.374 16.983 6.39887 16.733 6.44919 16.4311C6.55041 15.8238 6.75147 15.0254 7.14611 14.2361C7.53929 13.4498 8.11727 12.6862 8.9702 12.1176C9.81843 11.5521 10.9831 11.1494 12.6025 11.1494L18.3999 11.1494L18.4 9.64944L12.6025 9.64944C10.7206 9.64944 9.25938 10.1221 8.13815 10.8695C7.02161 11.6139 6.28662 12.601 5.80447 13.5653C5.3238 14.5267 5.0872 15.4789 4.96959 16.1845C4.9105 16.5391 4.88066 16.8362 4.86556 17.0477C4.858 17.1535 4.85411 17.2382 4.8521 17.2983C4.8511 17.3284 4.85057 17.3524 4.85029 17.3698L4.85003 17.3909L4.84998 17.3977L4.84998 17.4002C4.84998 17.4006 4.84998 17.402 5.59998 17.402L4.84998 17.402C4.84998 17.8162 5.18576 18.152 5.59998 18.152Z" fill="black"/>
</svg>

<svg xmlns="http://www.w3.org/2000/svg" fill="none" viewBox="0 0 24 24">
  <path fill="#000" fill-rule="evenodd" d="M14.173 14.931a.75.75 0 0 0 1.06 0l3.402-3.401c.27-.27.445-.63.445-1.03 0-.401-.175-.76-.445-1.031l-3.401-3.401a.75.75 0 0 0-1.061 1.06l3.371 3.371-3.371 3.371a.75.75 0 0 0 0 1.061Z" clip-rule="evenodd"/>
  <path fill="#000" fill-rule="evenodd" d="M5.6 18.152a.75.75 0 0 0 .75-.75H5.6h.75v-.008l.001-.046a7.844 7.844 0 0 1 .098-.917 7.857 7.857 0 0 1 .697-2.195c.393-.786.971-1.55 1.824-2.118.848-.566 2.013-.969 3.632-.969H18.4v-1.5h-5.797c-1.882 0-3.344.473-4.465 1.22-1.116.745-1.851 1.732-2.334 2.696a9.355 9.355 0 0 0-.834 2.62 9.342 9.342 0 0 0-.118 1.113l-.002.072v.03s0 .002.75.002h-.75c0 .414.336.75.75.75Z" clip-rule="evenodd"/>
</svg>
